X: 2
T: No_11_Game_Song.krn
N: Derived from No_11_Game_Song.krn
%%abc-version 2.0
%%abcx-abcm2ps-target-version 5.9.1 (29 Sep 2008)
%%abc-creator hum2abc beta
%%abcx-conversion-date 2019/03/15 08:25:35
%%humdrum-veritas 2379021460
%%humdrum-veritas-data 1662486902
%%linebreak <none>
%%barnumbers 0
L: 1/8
M: 2/4
K: Eb clef=treble
[K:clef=treble][M:2/4]CB, B,B, | 
B,B,B,2 | 
CB, B,B, | 
G,/ z/ B,B,2 ]|:  
GB Bc | 
BGE2 | 
B,B,B,2 | 
CB, B,B, | 
B,B, F,/B, z/ | 
GB Bc | 
BGE2 | 
B,B,B,2 | 
CB, B,B, | 
B,B, G, z | 
FF (3FFF | 
F2B,2 | 
B,2B,B, | 
B,B, B,B, | 
B,B, G, z | 
FF (3FFF | 
F2B,2 | 
B,B, B, z | 
B,2B,B, | 
G,B,B,2 | 
E2E z | 
B,2B,2 | 
G,EB,2 | 
[M:3/4]B,B, B,B,B,2 :|]  



